img/insta/logo.svg

<svg width="240" height="240" viewBox="0 0 240 240" fill="none" xmlns="http://www.w3.org/2000/svg">
<circle cx="120" cy="120" r="120" fill="url(#paint0_radial_586_2516)"/>
<circle cx="120" cy="120" r="110" fill="url(#paint1_linear_586_2516)"/>
<path fill-rule="evenodd" clip-rule="evenodd" d="M183.67 96.8638V94.5294H182.812V94H185.158V94.5294H184.3V96.8638H183.67ZM185.488 96.8638V94H186.375L187.044 95.9693H187.052L187.686 94H188.573V96.8638H187.983V94.8343H187.975L187.273 96.8638H186.788L186.086 94.8543H186.078V96.8638H185.488ZM135.231 97.8661L129.215 96.8634V94.0558H150.072V96.8634L143.855 97.8661V128.95C143.855 135.97 148.387 141.384 160.099 141.384C170.728 141.384 170.728 131.156 170.728 124.739V97.8661L163.909 96.8634V94.0558H181.758V96.8634L175.34 97.8661V127.547C175.34 137.975 171.169 146.398 160.099 146.398C143.855 146.398 135.231 145.596 135.231 128.95V97.8661ZM93.7199 98.2675V141.585L87.9042 142.588V145.596H109.563V142.588L102.343 141.585V123.536H110.365L124.203 145.596H137.038V142.588L131.623 141.585L118.186 122.132C121.529 121.397 128.214 117.239 128.214 106.49C128.214 95.7406 115.78 93.8555 109.563 94.2566H87.9042V97.4653L93.7199 98.2675ZM102.343 98.6688V119.325H110.766C115.78 119.325 119.991 116.638 119.991 108.295C119.991 99.9523 113.172 98.4014 109.763 98.6688H102.343ZM70.8566 94.2563H50V145.596H72.6615C78.0762 145.596 88.7051 141.866 88.7051 131.758C88.7051 121.651 80.7501 118.455 76.6724 118.121C79.4132 117.72 84.8947 113.308 84.8947 106.088C84.8947 97.4249 75.6697 94.2563 70.8566 94.2563ZM58.6237 116.918V99.0697H68.6509C71.5254 99.0697 77.2743 100.754 77.2743 107.493C77.2743 114.231 73.2635 116.918 67.8488 116.918H58.6237ZM58.6237 121.33V141.585H67.8488C79.6809 141.585 81.2852 137.494 81.2852 130.756C81.2852 122.333 74.2662 121.33 68.6509 121.33H58.6237ZM189.178 141.786C189.178 144.665 186.844 147 183.964 147C181.084 147 178.75 144.665 178.75 141.786C178.75 138.906 181.084 136.572 183.964 136.572C186.844 136.572 189.178 138.906 189.178 141.786Z" fill="#25394E"/>
<defs>
<radialGradient id="paint0_radial_586_2516" cx="0" cy="0" r="1" gradientUnits="userSpaceOnUse" gradientTransform="rotate(47.4525) scale(354.924 582.479)">
<stop stop-color="#735DD2"/>
<stop offset="0.480642" stop-color="#CE3547"/>
<stop offset="1" stop-color="#F8B121"/>
</radialGradient>
<linearGradient id="paint1_linear_586_2516" x1="10" y1="10" x2="272.861" y2="91.13" gradientUnits="userSpaceOnUse">
<stop stop-color="#FFE27A"/>
<stop offset="1" stop-color="#E6B500"/>
</linearGradient>
</defs>
</svg>

<svg width="240" height="240" fill="none" xmlns="http://www.w3.org/2000/svg"><circle cx="120" cy="120" r="120" fill="url(#paint0_radial_586_2516)"/><circle cx="120" cy="120" r="110" fill="url(#paint1_linear_586_2516)"/><path fill-rule="evenodd" clip-rule="evenodd" d="M183.67 96.864v-2.335h-.858V94h2.346v.53h-.858v2.334h-.63zm1.818 0V94h.887l.669 1.97h.008l.634-1.97h.887v2.864h-.59v-2.03h-.008l-.702 2.03h-.485l-.702-2.01h-.008v2.01h-.59zm-50.257 1.002l-6.016-1.003v-2.807h20.857v2.807l-6.217 1.003v31.084c0 7.02 4.532 12.434 16.244 12.434 10.629 0 10.629-10.228 10.629-16.645V97.866l-6.819-1.003v-2.807h17.849v2.807l-6.418 1.003v29.681c0 10.428-4.171 18.851-15.241 18.851-16.244 0-24.868-.802-24.868-17.448V97.866zm-41.511.401v43.318l-5.816 1.003v3.008h21.659v-3.008l-7.22-1.003v-18.049h8.022l13.838 22.06h12.835v-3.008l-5.415-1.003-13.437-19.453c3.343-.735 10.028-4.893 10.028-15.642 0-10.75-12.434-12.634-18.651-12.233H87.904v3.208l5.816.802zm8.623.402v20.656h8.423c5.014 0 9.225-2.687 9.225-11.03s-6.819-9.894-10.228-9.626h-7.42zm-31.486-4.413H50v51.34h22.662c5.414 0 16.043-3.73 16.043-13.838 0-10.107-7.955-13.303-12.033-13.637 2.741-.401 8.223-4.813 8.223-12.033 0-8.663-9.225-11.832-14.038-11.832zm-12.233 22.662V99.07H68.65c2.874 0 8.623 1.684 8.623 8.423 0 6.738-4.01 9.425-9.425 9.425h-9.225zm0 4.412v20.255h9.225c11.832 0 13.436-4.091 13.436-10.829 0-8.423-7.019-9.426-12.634-9.426H58.624zm130.554 20.456a5.214 5.214 0 11-10.428 0 5.214 5.214 0 0110.428 0z" fill="#25394E"/><defs><radialGradient id="paint0_radial_586_2516" cx="0" cy="0" r="1" gradientUnits="userSpaceOnUse" gradientTransform="matrix(239.99775 261.48064 -429.12562 393.86925 0 0)"><stop stop-color="#735DD2"/><stop offset=".481" stop-color="#CE3547"/><stop offset="1" stop-color="#F8B121"/></radialGradient><linearGradient id="paint1_linear_586_2516" x1="10" y1="10" x2="272.861" y2="91.13" gradientUnits="userSpaceOnUse"><stop stop-color="#FFE27A"/><stop offset="1" stop-color="#E6B500"/></linearGradient></defs></svg>
